X:2605
T:Polska efter Johan Lundin
S:upptecknad av [[Personer/Johan Lundin]]
B:[[http://www.smus.se/earkiv/fmk/browselarge.php?lang=sw&katalogid=M+6&bildnr=00024|SMUS - katalog M6 bild 24]] nr 118
Z:Nils L
R:Polska
O:Uppland
M:3/4
L:1/8
K:G
D>D G>G B>B | (3ABA Gz B>d | d>g g>A c>e | (3efe d>d g>d |
d>B G>G B>B | (3ABA G2 B>d | d>g g>G A>e | (3efe d2  z2  ::
[dDG,]>g g>A c>e | (3efe d>B G>B   | (3BAB c>A F>A | A/B/A/F/ G>B d>d  |
d>g      g>A c>e | (3efe d>B GB/c/ | (3BAB c>A F>A | A/B/A/F/ G2  z2  :|
(:musicend:)
(:music:)
